packages/core/src/svgs/tokens/mono/AIMBOT.svg

<svg width="24" height="24" viewBox="0 0 24 24" fill="none" xmlns="http://www.w3.org/2000/svg">
<path d="M7.49976 11.8253L11.9797 14.0003L16.4998 12.0003L11.9797 10.0002" fill="white"/>
<path d="M7.49976 11.8253L11.9797 14.0003V10.0002L7.49976 11.8253Z" fill="white"/>
<path d="M19.535 7H4.465L2 9.83504V14.165L4.465 17H19.535L22 14.165V9.83504L19.535 7ZM19.66 13.7C19.66 13.7 18.85 15 18.43 15H5.56999C5.14999 15 4.34 13.7 4.34 13.7C4.34 13.7 4.255 12.835 4.255 12.0099C4.255 11.185 4.34 10.32 4.34 10.32L5.56999 8.99999H18.43L19.66 10.32C19.66 10.32 19.745 11.185 19.745 12.0099C19.745 12.835 19.66 13.7 19.66 13.7Z" fill="white"/>
</svg>

<svg xmlns="http://www.w3.org/2000/svg" width="24" height="24" fill="none" viewBox="0 0 24 24">
    <path fill="#fff" d="M7.5 11.825 11.98 14l4.52-2-4.52-2"/>
    <path fill="#fff" d="M7.5 11.825 11.98 14v-4z"/>
    <path fill="#fff" d="M19.535 7H4.465L2 9.835v4.33L4.465 17h15.07L22 14.165v-4.33zm.125 6.7s-.81 1.3-1.23 1.3H5.57c-.42 0-1.23-1.3-1.23-1.3s-.085-.865-.085-1.69.085-1.69.085-1.69L5.57 9h12.86l1.23 1.32s.085.865.085 1.69-.085 1.69-.085 1.69"/>
</svg>
